X: 44
T:Balvenie Castle
B:William Marshall's Scottish Airs, Melodies, Strathspeys, Reels &c (1822)
C:William Marshall
L:1/8
M:C
O:Scotland
R:Strathspey
Z:Clark Bernst + Richard Robinson
%%Page:10 - 1
F:http://richardrobinson.tunebook.org.uk/tune/3887
%%TBL:{"version":1,"type":"tune","id":"3887"}
K:Bb
%%staves { 1 2 }
V:1
B>GF>E D>CB,>d | e<cf>d c/c/c !trill!c2 | \
(c/B/)_A/G/ (A/G/)F/E/ D>CB,>d | e<c!trill!f>d B/B/B ~B2 |
B>GF>E D>CB,>d | e<cf>d c/c/c !trill!c2 | \
(c/B/)_A/G/ (A/G/)F/E/ D>CB,>d | e<c!trill!f>d B/B/B ~B2 ||
B>fd>f B>fd>f | e>gd>f c/c/c ~c2 | \
B>fd>f B>fd>f | e<g!trill!f>d B/B/B ~B2 |
B>fd>f B>fd>f | e>gd>f c/c/c cg/a/ | \
bgaf gefd | e<g!trill!f>d B/B/B ~B2 |]
V:2 middle=d clef=bass
L:1/4
BBBB | cBFF | EedB | efBB | BBBB | cBFF | EedB | efBB || \
Bbbb c'bff | bBBd | efBB | Bbbb | c'b ff | efed | ef BB |]

